packages/foundations/assets/icons/functional/images/audio & video/fast_backward_30_24.svg

<svg width="24" height="24" viewBox="0 0 24 24" fill="none" xmlns="http://www.w3.org/2000/svg">
<g clip-path="url(#clip0_184_256)">
<path fill-rule="evenodd" clip-rule="evenodd" d="M5.32513 12C6.85413 12 7.96413 12.99 7.96413 14.354C7.96413 14.89 7.80813 15.364 7.49713 15.777C8.03613 16.231 8.36013 16.91 8.36013 17.709C8.36013 20.752 4.64013 20.931 3.23913 20.999L3.18913 21C2.92391 21.0061 2.66713 20.9066 2.47528 20.7233C2.28343 20.5401 2.17223 20.2882 2.16613 20.023C2.16003 19.7578 2.25953 19.501 2.44276 19.3091C2.62598 19.1173 2.87791 19.0061 3.14313 19C6.17513 18.854 6.34813 18.138 6.35813 17.771V17.709C6.35813 17.578 6.35813 17.178 5.75813 17.178C5.43413 17.178 5.22313 17.199 4.53213 17.336C4.27515 17.3859 4.00885 17.333 3.79041 17.1887C3.57197 17.0445 3.41882 16.8203 3.36384 16.5643C3.30885 16.3084 3.35642 16.0411 3.49633 15.8198C3.63624 15.5986 3.85733 15.441 4.11213 15.381C4.66713 15.251 5.96213 14.891 5.96213 14.354C5.96213 14.027 5.47513 14.001 5.32513 14.001C4.86513 14.001 4.38913 14.131 3.82413 14.409C3.70627 14.467 3.57813 14.5013 3.44702 14.5098C3.31592 14.5183 3.18442 14.5009 3.06004 14.4586C2.80884 14.3732 2.60185 14.1915 2.48463 13.9535C2.42658 13.8356 2.39232 13.7075 2.3838 13.5764C2.37528 13.4453 2.39266 13.3138 2.43496 13.1894C2.52038 12.9382 2.7021 12.7312 2.94013 12.614C3.79013 12.196 4.54813 12 5.32513 12ZM14.2351 2.99997C14.7941 2.99997 15.2591 3.43397 15.2591 3.96097C15.2588 4.10229 15.2281 4.2419 15.1693 4.3704C15.1105 4.4989 15.0248 4.61332 14.9181 4.70597L14.5151 5.10897C18.6391 5.44997 21.8341 8.89197 21.8341 13.017C21.8341 14.0669 21.6257 15.1063 21.2211 16.0751C20.8165 17.0439 20.2238 17.9229 19.4771 18.661C19.3873 18.7503 19.2808 18.821 19.1636 18.8691C19.0463 18.9171 18.9208 18.9416 18.7941 18.941C18.5315 18.9389 18.2803 18.8335 18.0946 18.6477C17.909 18.462 17.804 18.2106 17.8021 17.948C17.8014 17.8213 17.8258 17.6957 17.8739 17.5785C17.9219 17.4613 17.9927 17.3547 18.0821 17.265C19.2291 16.087 19.8491 14.567 19.8491 13.048C19.8491 9.91597 17.4291 7.31097 14.3291 7.09397L14.8871 7.71397C14.9858 7.79784 15.0647 7.90244 15.1183 8.02033C15.1719 8.13822 15.1988 8.26648 15.1971 8.39597C15.1971 8.92297 14.7631 9.38797 14.2361 9.38797C13.9261 9.38797 13.6771 9.29497 13.4911 9.10897L11.3211 6.90697C11.2291 6.81295 11.1568 6.70138 11.1087 6.5789C11.0606 6.45641 11.0376 6.32551 11.0411 6.19397C11.0411 5.91497 11.1351 5.69797 11.3211 5.51197L13.5841 3.21697C13.7702 3.07213 13.9994 2.99554 14.2351 2.99997ZM12.6671 12C14.4351 12 15.6441 13.334 15.6441 15.318V17.582C15.6441 19.567 14.4341 20.9 12.6671 20.9C10.8681 20.9 9.69013 19.567 9.69013 17.613V15.256C9.69013 13.272 10.8681 12 12.6671 12ZM12.6901 14C12.0651 14 11.6901 14.472 11.6901 15.258V17.679C11.6901 18.529 12.0651 19 12.6901 19C13.3151 19 13.6901 18.528 13.6901 17.648V15.352C13.6901 14.503 13.3151 14 12.6901 14Z" fill="#1A1C1F"/>
</g>
<defs>
<clipPath id="clip0_184_256">
<rect width="24" height="24" fill="white"/>
</clipPath>
</defs>
</svg>

<svg xmlns="http://www.w3.org/2000/svg" width="24" height="24" fill="none"><g clip-path="url(#a)"><path fill="#1A1C1F" fill-rule="evenodd" d="M5.325 12c1.53 0 2.64.99 2.64 2.354q0 .804-.468 1.423c.54.454.863 1.133.863 1.932 0 3.043-3.72 3.222-5.12 3.29L3.19 21a1 1 0 0 1-.047-2c3.032-.146 3.205-.862 3.215-1.229v-.062c0-.131 0-.531-.6-.531-.324 0-.535.021-1.226.158a1 1 0 0 1-.42-1.955c.555-.13 1.85-.49 1.85-1.027 0-.327-.487-.353-.637-.353-.46 0-.936.13-1.5.408a1 1 0 0 1-.885-1.795C3.79 12.196 4.548 12 5.325 12m8.91-9c.56 0 1.024.434 1.024.961a1 1 0 0 1-.34.745l-.404.403c4.124.341 7.32 3.783 7.32 7.908a7.94 7.94 0 0 1-2.358 5.644.96.96 0 0 1-.683.28 1 1 0 0 1-.992-.993.96.96 0 0 1 .28-.683c1.147-1.178 1.767-2.698 1.767-4.217 0-3.132-2.42-5.737-5.52-5.954l.558.62a.88.88 0 0 1 .31.682c0 .527-.434.992-.96.992q-.466 0-.746-.279l-2.17-2.202a.98.98 0 0 1-.28-.713c0-.279.094-.496.28-.682l2.263-2.295c.186-.145.415-.221.651-.217m-1.568 9c1.768 0 2.977 1.334 2.977 3.318v2.264c0 1.985-1.21 3.318-2.977 3.318-1.799 0-2.977-1.333-2.977-3.287v-2.357c0-1.984 1.178-3.256 2.977-3.256m.023 2c-.625 0-1 .472-1 1.258v2.421c0 .85.375 1.321 1 1.321s1-.472 1-1.352v-2.296c0-.849-.375-1.352-1-1.352" clip-rule="evenodd"/></g><defs><clipPath id="a"><path fill="#fff" d="M0 0h24v24H0z"/></clipPath></defs></svg>
